build/system/UpdateSolid.svg

<svg xmlns="http://www.w3.org/2000/svg" fill="none" viewBox="0 0 24 24" focusable="false"><path d="M0 0H24V24H0z"/><path fill="#74767B" fill-rule="evenodd" d="M12 21C16.9706 21 21 16.9706 21 12C21 7.02944 16.9706 3 12 3C7.02944 3 3 7.02944 3 12C3 16.9706 7.02944 21 12 21ZM14.8802 7.13922L14.6524 6.27222C14.5539 5.92522 14.7434 5.56108 15.0904 5.46262C15.4374 5.36416 15.8016 5.55363 15.9 5.90063L16.6117 8.41998C16.7296 8.81305 16.4926 9.21892 16.0974 9.3008L13.6669 9.78448C13.3163 9.86927 12.9723 9.64525 12.8875 9.29466C12.8307 9.13412 12.8632 8.97937 12.9439 8.8412C13.0296 8.6944 13.1808 8.57426 13.3673 8.53259L14.3291 8.32601C13.4572 7.77269 12.3871 7.52662 11.289 7.70853C9.07627 8.0751 7.53145 10.0522 7.65625 12.2415C7.67668 12.5999 7.40269 12.907 7.04429 12.9274C6.68589 12.9479 6.37878 12.6739 6.35835 12.3155C6.19617 9.4703 8.20156 6.90228 11.0766 6.42601C12.443 6.19964 13.776 6.48432 14.8802 7.13922ZM17.6416 11.6846C17.6211 11.3262 17.314 11.0522 16.9556 11.0726C16.5972 11.0931 16.3233 11.4002 16.3437 11.7586C16.4685 13.9479 14.9237 15.925 12.7109 16.2915C11.6128 16.4735 10.5428 16.2274 9.67085 15.6741L10.6328 15.4675C10.8192 15.4258 10.9704 15.3057 11.0562 15.1589C11.1369 15.0207 11.1693 14.866 11.1125 14.7054C11.0277 14.3548 10.6838 14.1308 10.3332 14.2156L7.90264 14.6993C7.50743 14.7812 7.27043 15.187 7.3883 15.5801L8.10002 18.0995C8.19848 18.4464 8.56262 18.6359 8.90962 18.5375C9.25661 18.439 9.44609 18.0749 9.34763 17.7279L9.1199 16.8609C10.224 17.5158 11.5571 17.8004 12.9234 17.5741C15.7984 17.0978 17.8038 14.5298 17.6416 11.6846Z"/></svg>

<svg xmlns="http://www.w3.org/2000/svg" fill="none" viewBox="0 0 24 24" focusable="false"><path fill="#74767B" fill-rule="evenodd" d="M12 21a9 9 0 0 0 9-9c0-4.98-4.03-9-9-9-4.98 0-9 4.02-9 9 0 4.97 4.02 9 9 9m2.88-13.87-.23-.86c-.1-.35.09-.71.44-.81.34-.1.71.09.8.44l.72 2.51c.11.4-.12.8-.52.89l-2.43.48a.657.657 0 0 1-.78-.49.54.54 0 0 1 .06-.45c.08-.15.24-.27.42-.31l.96-.21c-.87-.55-1.94-.8-3.04-.62a4.364 4.364 0 0 0-3.63 4.54c.02.35-.25.66-.61.68a.65.65 0 0 1-.69-.61 5.665 5.665 0 0 1 4.72-5.89c1.37-.23 2.7.06 3.81.71m2.76 4.55a.65.65 0 0 0-.69-.61c-.36.02-.63.33-.61.68a4.364 4.364 0 0 1-3.63 4.54c-1.1.18-2.17-.07-3.04-.62l.96-.21c.18-.04.34-.16.42-.31.08-.13.11-.29.06-.45a.657.657 0 0 0-.78-.49l-2.43.48c-.4.09-.63.49-.52.89l.72 2.51c.09.35.46.54.8.44.35-.1.54-.46.44-.81l-.22-.86c1.1.65 2.43.94 3.8.71a5.665 5.665 0 0 0 4.72-5.89"/></svg>
